frontend/src/link-logo.svg

<svg width="62" height="22" viewBox="0 0 62 22" fill="none" xmlns="http://www.w3.org/2000/svg">
<path d="M0.300438 21V2.52H6.39644V21H0.300438ZM8.69106 21V6.912L11.7391 7.536L14.7871 6.912V21H8.69106ZM11.7391 6.192C11.0511 6.192 10.4511 6.08 9.93906 5.856C9.42706 5.632 9.03106 5.312 8.75106 4.896C8.47106 4.472 8.33106 3.976 8.33106 3.408C8.33106 2.84 8.47106 2.348 8.75106 1.932C9.03106 1.508 9.42706 1.184 9.93906 0.959999C10.4511 0.735999 11.0511 0.623999 11.7391 0.623999C12.4271 0.623999 13.0271 0.735999 13.5391 0.959999C14.0511 1.184 14.4471 1.508 14.7271 1.932C15.0071 2.348 15.1471 2.84 15.1471 3.408C15.1471 3.976 15.0071 4.472 14.7271 4.896C14.4471 5.312 14.0511 5.632 13.5391 5.856C13.0271 6.08 12.4271 6.192 11.7391 6.192ZM28.2657 6.768C29.5937 6.768 30.7337 7.036 31.6857 7.572C32.6377 8.1 33.3657 8.852 33.8697 9.828C34.3737 10.796 34.6257 11.928 34.6257 13.224V21H28.5297V14.088C28.5297 13.32 28.3177 12.728 27.8937 12.312C27.4697 11.896 26.8737 11.688 26.1057 11.688C25.2817 11.688 24.6377 11.928 24.1737 12.408C23.7177 12.888 23.4897 13.56 23.4897 14.424V21H17.3937V12.144L16.4337 7.2H22.5297L22.9617 9.816C23.5697 8.816 24.3337 8.06 25.2537 7.548C26.1737 7.028 27.1777 6.768 28.2657 6.768ZM49.6452 12.6L54.6492 21H47.6412L45.6732 17.196L42.3852 21H36.7692V2.52H42.8652V13.5L47.4252 7.2H54.3132L49.6452 12.6ZM56.4781 14.04L55.4461 3H61.8301L60.7981 14.04H56.4781ZM58.6381 21.288C57.9981 21.288 57.4301 21.164 56.9341 20.916C56.4461 20.668 56.0661 20.316 55.7941 19.86C55.5301 19.404 55.3981 18.88 55.3981 18.288C55.3981 17.696 55.5301 17.172 55.7941 16.716C56.0661 16.26 56.4461 15.908 56.9341 15.66C57.4301 15.412 57.9981 15.288 58.6381 15.288C59.2781 15.288 59.8421 15.412 60.3301 15.66C60.8261 15.908 61.2061 16.26 61.4701 16.716C61.7421 17.172 61.8781 17.696 61.8781 18.288C61.8781 18.88 61.7421 19.404 61.4701 19.86C61.2061 20.316 60.8261 20.668 60.3301 20.916C59.8421 21.164 59.2781 21.288 58.6381 21.288Z" fill="white"/>
</svg>

<svg width="62" height="22" fill="none" xmlns="http://www.w3.org/2000/svg"><path d="M.3 21V2.52h6.096V21H.3Zm8.391 0V6.912l3.048.624 3.048-.624V21H8.691ZM11.74 6.192c-.688 0-1.288-.112-1.8-.336-.512-.224-.908-.544-1.188-.96-.28-.424-.42-.92-.42-1.488s.14-1.06.42-1.476c.28-.424.676-.748 1.188-.972.512-.224 1.112-.336 1.8-.336s1.288.112 1.8.336c.512.224.908.548 1.188.972.28.416.42.908.42 1.476s-.14 1.064-.42 1.488c-.28.416-.676.736-1.188.96-.512.224-1.112.336-1.8.336Zm16.527.576c1.328 0 2.468.268 3.42.804a5.307 5.307 0 0 1 2.184 2.256c.504.968.756 2.1.756 3.396V21H28.53v-6.912c0-.768-.212-1.36-.636-1.776-.424-.416-1.02-.624-1.788-.624-.824 0-1.468.24-1.932.72-.456.48-.684 1.152-.684 2.016V21h-6.096v-8.856l-.96-4.944h6.096l.432 2.616c.608-1 1.372-1.756 2.292-2.268.92-.52 1.924-.78 3.012-.78Zm21.38 5.832 5.003 8.4h-7.008l-1.968-3.804L42.385 21H36.77V2.52h6.096V13.5l4.56-6.3h6.888l-4.668 5.4Zm6.832 1.44L55.446 3h6.384l-1.032 11.04h-4.32Zm2.16 7.248c-.64 0-1.208-.124-1.704-.372a2.745 2.745 0 0 1-1.14-1.056c-.264-.456-.396-.98-.396-1.572 0-.592.132-1.116.396-1.572a2.745 2.745 0 0 1 1.14-1.056c.496-.248 1.064-.372 1.704-.372.64 0 1.204.124 1.692.372.496.248.876.6 1.14 1.056.272.456.408.98.408 1.572 0 .592-.136 1.116-.408 1.572a2.652 2.652 0 0 1-1.14 1.056c-.488.248-1.052.372-1.692.372Z" fill="#fff"/></svg>
